X:301
T:How Do You Do Sir - Headington
M:6/8
L:1/8
K:G
g2d e2c | ABc BAG | g2d e2c | ABA G2 :|
[M: 9/8]ABc B3 G3 | ABc B3 G3 | ABc B3 G3 |
[M:6/8]ABc ded | ABc def ||
